X: 54
T:The Girls of Banbridge
M:6/8
L:1/8
S:Ciaran Kelly, Moneymore, Derry (Accordian)
R:Jig
D:Session tape - Cross Keys, Antrim
Z:Bernie Stocks
K:D
A2d dcB | ABG FED | FAD FAD | CEE E3 | A2d dcB | ABG FED | def gec | edc d3 ::\
ABA dfa | agf efg | fef ged | cee e3 | ABA dfa | agf efg | fef gec | edc d3 :|
<end>
<start>
